X:25
T:Port Singil gan Ainm
B:Music from Ireland, Bulmer & Sharpley, 4:86
Z:Paul de Grae
R:single jig
M:12/8
L:1/8
K:G
G2 B d2 g b2 g d2 B|cBc agf gfe dBA|G2 B d2 g b2 g d2 B|
cBc agf g3 g3:|:g2 b c'2 b a2 e e2 g|f2 a abg f2 d d3|
g2 b c'2 b a2 e e2 g|faf def g3 g3:|

